src/lib/packages/icons/src/assets/filled/briefcase-check.svg

<svg width="24" height="24" viewBox="0 0 24 24" fill="none" xmlns="http://www.w3.org/2000/svg">
<path d="M4.41 12.04C5.79 12.59 7.21999 13.0101 8.64999 13.3101C8.74999 13.3301 8.86 13.25 8.92 13.16C9.64 12.08 10.8 11.4301 12 11.4301C13.21 11.4301 14.36 12.08 15.09 13.16C15.15 13.25 15.25 13.3301 15.36 13.3101C16.79 13.0101 18.21 12.59 19.59 12.05C20.45 11.71 21 10.89 21 9.95996V9C21 7 20 6 18 6H16.75V4.5C16.75 3.54 15.96 2.75 15 2.75H9C8.03 2.75 7.25 3.54 7.25 4.5V6H6C4 6 3 7 3 9V9.95996C3 10.89 3.55 11.71 4.41 12.04ZM8.75 4.5C8.75 4.36 8.86 4.25 9 4.25H15C15.14 4.25 15.25 4.36 15.25 4.5V6H8.75V4.5ZM15 20C15 17.24 17.24 15 20 15C20.2 15 20.4 15.01 20.59 15.03C20.63 15.04 20.68 15.04 20.72 15.04C20.89 15.04 21 14.91 21 14.75V12.96C20.74 13.16 20.45 13.3199 20.14 13.4399C18.68 14.0199 17.17 14.47 15.66 14.78C15.55 14.8 15.43 14.8101 15.32 14.8101C14.74 14.8101 14.19 14.51 13.84 13.99C13.4 13.33 12.71 12.9301 12 12.9301C11.3 12.9301 10.61 13.33 10.17 13.99C9.75 14.61 9.04001 14.92 8.35001 14.78C6.83001 14.47 5.32 14.0199 3.86 13.4399C3.55 13.3199 3.26 13.16 3 12.95V18C3 20 4 21 6 21H14.75C14.92 21 15.04 20.88 15.04 20.72C15.04 20.68 15.04 20.63 15.03 20.58C15.01 20.39 15 20.19 15 20ZM12.002 16C11.451 16 11 15.552 11 15C11 14.448 11.443 14 11.994 14H12.002C12.553 14 13 14.448 13 15C13 15.552 12.553 16 12.002 16ZM21.53 18.864L18.863 21.531C18.717 21.677 18.525 21.751 18.333 21.751C18.141 21.751 17.949 21.678 17.803 21.531L16.47 20.198C16.177 19.905 16.177 19.43 16.47 19.137C16.763 18.844 17.238 18.844 17.531 19.137L18.334 19.9399L20.47 17.804C20.763 17.511 21.238 17.511 21.531 17.804C21.824 18.097 21.823 18.571 21.53 18.864Z" fill="currentColor"/>
</svg>

<svg xmlns="http://www.w3.org/2000/svg" width="24" height="24" fill="none"><path fill="currentColor" d="M4.41 12.04c1.38.55 2.81.97 4.24 1.27.1.02.21-.06.27-.15.72-1.08 1.88-1.73 3.08-1.73 1.21 0 2.36.65 3.09 1.73.06.09.16.17.27.15 1.43-.3 2.85-.72 4.23-1.26.86-.34 1.41-1.16 1.41-2.09V9c0-2-1-3-3-3h-1.25V4.5c0-.96-.79-1.75-1.75-1.75H9c-.97 0-1.75.79-1.75 1.75V6H6C4 6 3 7 3 9v.96c0 .93.55 1.75 1.41 2.08ZM8.75 4.5c0-.14.11-.25.25-.25h6c.14 0 .25.11.25.25V6h-6.5V4.5ZM15 20c0-2.76 2.24-5 5-5 .2 0 .4.01.59.03.04.01.09.01.13.01.17 0 .28-.13.28-.29v-1.79c-.26.2-.55.36-.86.48-1.46.58-2.97 1.03-4.48 1.34-.11.02-.23.03-.34.03-.58 0-1.13-.3-1.48-.82-.44-.66-1.13-1.06-1.84-1.06-.7 0-1.39.4-1.83 1.06-.42.62-1.13.93-1.82.79a26.58 26.58 0 0 1-4.49-1.34c-.31-.12-.6-.28-.86-.49V18c0 2 1 3 3 3h8.75c.17 0 .29-.12.29-.28 0-.04 0-.09-.01-.14-.02-.19-.03-.39-.03-.58Zm-2.998-4A1.003 1.003 0 0 1 11 15c0-.552.443-1 .994-1h.008a1 1 0 0 1 0 2Zm9.528 2.864-2.667 2.667a.748.748 0 0 1-1.06 0l-1.333-1.333a.75.75 0 1 1 1.061-1.061l.803.803 2.136-2.136a.75.75 0 1 1 1.06 1.06Z"/></svg>
